X:12
%%NRChange 2023-06-05
T:Den store paipolsen
T:The Great Pie Pols
M:3/4
L:1/8
C:Asmund Reistad
R:Polska
Q:1/4=150
O:Norway
D:Chateau Neuf Spelemannslag - Tjuvgods
Z:Steve Mansfield June 2001
K:Amaj
P:A
"A"A3 c B>G | AE- E>F E>C | "D"DF- F E/2D/2 "E"E>G | "A"(3A2E2F2 "E"E2 |
"A"zA- Ac B>G | (3A2E2A2 c>e | "D"d>e "A"c>A "E"B<G | "A"A2 A4 ::
P:B
"A"(3e2e2c2 "D"d>B | "A"(3c2c2A2 "E"B>G| "A"AG/2A/2 B2 c>A | "B7"B>^d "E"e4 |
"D"(3fdf "A"(3ece "E"d>B | "A"(3c2c2A2 "E"B>G | "D"AG/2A/2 B2 c>A | "E"G<B "A"A4 :|

